F[BALLADE
CUT[Die dienende Schwester
    Es war ein Markgraf an dem Rhein]
CNR[der hatt' drei schoene Toechterlein]
REG[Mitteleuropa, Deutschland (DDR) , Provinz Sachsen]
SRC[4, S. 108
    ????]
KEY[Q0075V 08  F 4/4 3/2]
MEL[-5_  1_1_5_5_  3_.43_
    1_  2_.32_1_  -7_-6_-5_
    4_3_2_  3_6_5_4_  3__2__  1__0_ //] >>
FCT[Ballade, Adelige als Dienstmagd, Tod; Kinder - Spiel, Tanz]
CMT[Ein Taktstrich gemaess der Taktvorzeichnung weggelassen.]
